public/assets/imgs/page/homepage5/leaf.svg

<svg width="19" height="19" viewBox="0 0 19 19" fill="none" xmlns="http://www.w3.org/2000/svg">
<path d="M3.58431 4.71419H1.60217C1.60217 8.80068 4.70855 12.1141 8.53964 12.1141V16.8713C8.53964 17.162 8.76263 17.3998 9.03517 17.3998H10.0262C10.2988 17.3998 10.5218 17.162 10.5218 16.8713V12.1141C10.5218 8.02765 7.41539 4.71419 3.58431 4.71419ZM15.4771 2.59991C12.8694 2.59991 10.6023 4.13607 9.41611 6.40561C10.274 7.40328 10.9089 8.61569 11.2434 9.96023C14.7338 9.57372 17.4592 6.42873 17.4592 2.59991H15.4771Z" fill="#006D77"/>
</svg>

<svg width="19" height="19" fill="none" xmlns="http://www.w3.org/2000/svg"><path d="M3.584 4.714H1.602c0 4.087 3.107 7.4 6.938 7.4v4.757c0 .291.223.529.495.529h.991c.273 0 .496-.238.496-.529v-4.757c0-4.086-3.107-7.4-6.938-7.4ZM15.477 2.6c-2.608 0-4.875 1.536-6.06 3.806a8.648 8.648 0 0 1 1.826 3.554c3.49-.386 6.216-3.531 6.216-7.36h-1.982Z" fill="#006D77"/></svg>
